Ndef(\lilassi).ar(2);
Ndef(\vermelhodo).ar(2);
Ndef(\laranjare).ar(2);
Ndef(\amarelomi).ar(2);
Ndef(\verdefa).ar(2);
Ndef(\verdesol).ar(2);

Ndef(\lilassi).play;
Ndef(\vermelhodo).play;
Ndef(\laranjare).play;
Ndef(\amarelomi).play;
Ndef(\verdefa).play;
Ndef(\verdesol).play;