Ndef(\lilassi).ar(2);
Ndef(\vermelhodo1).ar(2);
Ndef(\vermelhodo2).ar(2);
Ndef(\laranjare).ar(2);
Ndef(\amarelomi).ar(2);
Ndef(\verdefa1).ar(2);
Ndef(\verdefa2).ar(2);
Ndef(\verdesol).ar(2);

Ndef(\lilassi).play;
Ndef(\vermelhodo1).play;
Ndef(\vermelhodo2).play;
Ndef(\laranjare).play;
Ndef(\amarelomi).play;
Ndef(\verdefa1).play;
Ndef(\verdefa2).play;
Ndef(\verdesol).play;