Ndef(\do_mov1).ar(2);
Ndef(\re_mov1).ar(2);
Ndef(\mi_mov1).ar(2);
Ndef(\fa_mov1).ar(2);
Ndef(\sol_mov1).ar(2);
Ndef(\si_mov1).ar(2);

Ndef(\do_mov1).play;
Ndef(\re_mov1).play;
Ndef(\mi_mov1).play;
Ndef(\fa_mov1).play;
Ndef(\sol_mov1).play;
Ndef(\si_mov1).play;